images/richmond.svg

<svg height="90" viewBox="0 0 150 90" width="150" xmlns="http://www.w3.org/2000/svg"><path d="m29.3823048 34.0986581c-3.2380858 3.7352171-5.125162 8.4513424-5.3574833 13.3892642-.5715497 12.1481236 8.8131179 22.4594439 20.961235 23.030955 10.2488139.4821902 20.4973569.7232843 30.7456548.7232843 10.6221046 0 21.1126866-.2590027 31.4717427-.7769679 5.238434-.2619489 10.196221-2.4467649 13.924227-6.1361799 8.364452-8.2778678 8.434644-21.7691344.156776-30.1335873-9.324788-9.4223232-26.0590882-15.1954265-45.5372152-15.1954265-20.520971 0-38.2443649 5.7313646-46.364937 15.0986581z" fill="none" stroke="#000" stroke-width="4"/></svg>

<?xml version="1.0" encoding="UTF-8"?>
<svg width="150px" height="90px" viewBox="0 0 150 90" version="1.1" xmlns="http://www.w3.org/2000/svg" xmlns:xlink="http://www.w3.org/1999/xlink">
    <!-- Generator: Sketch 51.3 (57544) - http://www.bohemiancoding.com/sketch -->
    <title>Icon</title>
    <desc>Created with Sketch.</desc>
    <defs></defs>
    <g id="Icon" stroke="none" stroke-width="1" fill="none" fill-rule="evenodd">
        <path d="M29.3823048,34.0986581 C26.144219,37.8338752 24.2571428,42.5500005 24.0248215,47.4879223 C23.4532718,59.6360459 32.8379394,69.9473662 44.9860565,70.5188773 C55.2348704,71.0010675 65.4834134,71.2421616 75.7317113,71.2421616 C86.3538159,71.2421616 96.8443979,70.9831589 107.203454,70.4651937 C112.441888,70.2032448 117.399675,68.0184288 121.127681,64.3290138 C129.492133,56.051146 129.562325,42.5598794 121.284457,34.1954265 C111.959669,24.7731033 95.2253688,19 75.7472418,19 C55.2262708,19 37.5028769,24.7313646 29.3823048,34.0986581 Z" id="Rectangle-5" stroke="#000000" stroke-width="4"></path>
    </g>
</svg>
